X:1
T:Title
%%score ( 1 2 ) ( 3 4 )
L:1/8
Q:1/4=100
M:4/4
K:D
V:1 treble nm="Midi_20"
V:2 treble 
V:3 bass nm="Midi_20"
V:4 bass 
V:1
"^St Sylvester (D.C.M.)""^Joseph Barnby\n(1838-96)" D2 x6 | D3 D E2 F2 | F3 E E2 F2 | G2 A2 B2 c2 | %4
 A6 || A2 x6 | d3 c B2 F2 | A3 G G2 F2 | D3 D F2 E2 | E6 || E2 | G3 F E2 E2 | A3 G F2 F2 | %13
 B3 A G2 F2 | G4 || A4 | B3 B c2 c2 | d2 ^d2 e2 B2 | c2 B2 G3 E | D6 |] %20
V:2
 D2 x6 | A,3 D D2 D2 | D3 D D2 D2 | D2 D2 D2 C2 | (C4 D2) || E2 x6 | D3 E F2 D2 | F3 E E2 C2 | %8
 B,3 D D2 D2 | C6 || E2 | D3 D D2 C2 | D3 C D2 E2 | ^D3 D D2 D2 | E4 || F4 | G3 D E2 E2 | %17
 D2 F2 E2 E2 | E2 D2 B,2 C2 | D6 |] %20
V:3
 F,2 x6 | F,3 F, G,2 A,2 | B,3 B, B,2 A,2 | B,2 A,2 G,2 G,2 | (G,4 F,2) || A,2 x6 | %6
 F,3 F, F,2 B,2 | B,3 B, B,2 ^A,2 | F,2 B,2 A,2 ^G,2 | A,6 || %10
"^1. 'Twixt gleams of joy and clouds of doubt\nOur feelings come and go;\nOur best estate is tossed about\nIn ceaseless ebb and flow.\nNo mood of feeling, form of thought,\nIs constant for a day;\nBut Thou, O Lord, Thou changest not:\nThe same Thou art alway.\n\n2. I grasp Thy strength, make it mine own,\nMy heart with peace is blest;\nI lose my hold, and then comes down\nDarkness, and cold unrest.\nLet me no more my comfort draw\nFrom my frail hold of Thee,\nIn this alone rejoice with awe -\nThy mighty grasp of me." C2 | %11
 B,3 A, G,2 A,2 | A,3 A, A,2 A,2 | A,2 F,2 B,2 A,2 | G,4 || =C4 | %16
"^3. Out of that weak, unquiet drift\nThat comes but to depart,\nTo that pure heaven my spirit lift\nWhere Thou unchanging art.\nLay hold of me with Thy strong grasp,\nLet Thy almighty arm\nIn its embrace my weakness clasp,\nAnd I shall fear no harm.\n\n4. Thy purpose of eternal good\nLet me but surely know;\nOn this I'll lean - let changing mood\nAnd feeling come or go -\nGlad when Thy sunshine fills my soul,\nNot lorn with clouds o'ercast,\nSince Thou within Thy sure control\nOf love dost hold me fast." B,3 B, B,2 ^A,2 | %17
 B,2 =C2 B,2 G,2 | G,2 E,2 E,2 G,2 | F,6 |] %20
V:4
 D,2 D,3 D, D,2 | D,2 G,,3 G,, G,2 | F,2 E,2 E,2 E,2 | A,,2 D,6 | C,2 x4 || B,,3 C, D,2 B,,2 | %6
 E,3 E, E,2 F,2 | B,,3 B,, E,2 E,2 | A,,6 x2 | x6 || A,2 | A,,3 A,, A,,2 G,2 | F,3 E, D,2 =C,2 | %13
 B,,3 B,, B,,2 B,,2 | E,4 || D,4 | G,3 G, F,2 F,2 | B,2 A,2 G,2 E,2 | A,,2 A,,2 A,,2 A,,2 | D,6 |] %20

